svgs/thin/vault.svg

<svg xmlns="http://www.w3.org/2000/svg" viewBox="0 0 576 512"><!--! Font Awesome Pro 6.5.1 by @fontawesome - https://fontawesome.com License - https://fontawesome.com/license (Commercial License) Copyright 2023 Fonticons, Inc. --><path d="M64 16C37.5 16 16 37.5 16 64V416c0 26.5 21.5 48 48 48H512c26.5 0 48-21.5 48-48V64c0-26.5-21.5-48-48-48H64zM0 64C0 28.7 28.7 0 64 0H512c35.3 0 64 28.7 64 64V416c0 35.3-28.7 64-64 64v24c0 4.4-3.6 8-8 8s-8-3.6-8-8V480H80v24c0 4.4-3.6 8-8 8s-8-3.6-8-8l0-24c-35.3 0-64-28.7-64-64V64zM368 240A144 144 0 1 0 80 240a144 144 0 1 0 288 0zM64 240a160 160 0 1 1 320 0A160 160 0 1 1 64 240zm160 48a48 48 0 1 0 0-96 48 48 0 1 0 0 96zm0-112a64 64 0 1 1 0 128 64 64 0 1 1 0-128zm272 0a32 32 0 1 0 -64 0 32 32 0 1 0 64 0zm16 0c0 23.8-17.3 43.5-40 47.3V344c0 4.4-3.6 8-8 8s-8-3.6-8-8V223.3c-22.7-3.8-40-23.6-40-47.3c0-26.5 21.5-48 48-48s48 21.5 48 48z"/></svg>

<svg xmlns="http://www.w3.org/2000/svg" viewBox="0 0 576 512"><!--! Font Awesome Pro 6.1.1 by @fontawesome - https://fontawesome.com License - https://fontawesome.com/license (Commercial License) Copyright 2022 Fonticons, Inc. --><path d="M160 240C160 204.7 188.7 176 224 176C259.3 176 288 204.7 288 240C288 275.3 259.3 304 224 304C188.7 304 160 275.3 160 240zM224 288C250.5 288 272 266.5 272 240C272 213.5 250.5 192 224 192C197.5 192 176 213.5 176 240C176 266.5 197.5 288 224 288zM384 240C384 328.4 312.4 400 224 400C135.6 400 64 328.4 64 240C64 151.6 135.6 80 224 80C312.4 80 384 151.6 384 240zM224 96C144.5 96 80 160.5 80 240C80 319.5 144.5 384 224 384C303.5 384 368 319.5 368 240C368 160.5 303.5 96 224 96zM512 176C512 199.8 494.7 219.5 472 223.3V344C472 348.4 468.4 352 464 352C459.6 352 456 348.4 456 344V223.3C433.3 219.5 416 199.8 416 176C416 149.5 437.5 128 464 128C490.5 128 512 149.5 512 176zM464 144C446.3 144 432 158.3 432 176C432 193.7 446.3 208 464 208C481.7 208 496 193.7 496 176C496 158.3 481.7 144 464 144zM0 64C0 28.65 28.65 0 64 0H512C547.3 0 576 28.65 576 64V416C576 451.3 547.3 480 512 480V504C512 508.4 508.4 512 504 512C499.6 512 496 508.4 496 504V480H80V504C80 508.4 76.42 512 72 512C67.58 512 64 508.4 64 504V480C28.65 480 0 451.3 0 416V64zM16 64V416C16 442.5 37.49 464 64 464H512C538.5 464 560 442.5 560 416V64C560 37.49 538.5 16 512 16H64C37.49 16 16 37.49 16 64z"/></svg>
